X: 291
T: The Curlew
C: Josephine Keegan
R: reel
M: 4/4
L: 1/8
K: Bmin
"Bm"fB~B2 Bcde | "A"fece ~a3e| "D"(3fga "A"ed cA~A2 | ^GAce a^gba |
"Bm"fB~B2 Bcde | "A"fece ~a3f| "G"~g3e "D"~f3e | "Bm"dBBA FB~B2 :|
|: "Bm" Bdcd BF~F2 | DF~F2 Bcdf | "A"ecBc AE~E2 | CEAB cedc |
"Bm"Bdcd BF~F2 | DF~F2 Bcdf | "A"ecBA fcec | "Bm"dcBA FB~B2 :| 